X: 551
T: Chuan menzi
%%abc-version 2.0
%%abcx-abcm2ps-target-version 5.9.1 (29 Sep 2008)
%%abc-creator hum2abc beta
%%abcx-conversion-date 2013/10/02 07:52:30
%%abc-edited-by Helmut Schaffrath
%%humdrum-veritas 1232574953
%%humdrum-veritas-data 1225807182
%%continueall 1
%%barnumbers 0
L: 1/8
M: 4/4
K: A
Be2e d> cB2 [I:setbarnb 1]| 
Be2e d> cB2 | 
ce2B c B A G | 
F> E F GE4 | 
B cB2c> A G F | 
E2e2d> cB2 | 
ce2B c B A3/ G/ | 
F> E F/ E/ F/ A/E4 |]  



